X: 16
T: Brisk Young Lads
B: NEFR #16
Z: 2012 John Chambers <jc:trillian.mit.edu>
N: Bars 9,11,13 have written-out runs; rewritten with grace notes to make the song's tune clearer.
M: 6/8
R: jig
K: Am
E |\
"Am"ABA c2d | edc "(D7)"B2A | "G"GAG B2c | dge dBG | \
"Am"ABA c2d | edc "G"Bcd | "Am"e2A "E7"AB^G | "Am"A3 a2 :|
|: "G7"B |\
"C"c2{d}e{f} g2a | gec gec | "G"G2{A}B{c} d2e | dBg dBG |\
"C"c2{d}e{f} g2a | gec "E7"ce^g | "Am"a2A "E7"AB^G | "Am"A3 a2 :|
